X:2231
L:1/8
Q:1/4=120
M:2/2
K:G
"^Moderately quick" (B d3) d4 | de=fd e2 dB | [G,G]3 A B2 d2- | d2 de d2 B2 | A2 GG (ED)EG | 
 [G,D]6 [DA]2 | Bd- d2 d4 | de=fd e2 d2 | !slide!B3 c (B/c/B/c/) AA | GABd A2 GG || 
 [G,E]4{B} cBAA | GGBG A2 GG | [G,E]2 [Ec]2{B} ([Ec]B)AF | G2 BG D2 E2 | G3 (A B)GAF | G2 BG BGAG | 
 [G,E]2 [Ec]2{B} ([Ec]B)AF | GGBG D2 E2 | G3 (A B)GAF | G2 BG A2 G2 | [G,E]2 [Ec]2{B} ([Ec]B)AF | 
 G2 BG D2 E2 | G4 ([GB]3 A) ||

